X:227
T:Paddywhack
R:jig
D:Tommy Keane: The Piper's Apron
Z:id:hn-jig-227
M:6/8
K:G
GAB c2e|dBG AFD|GBd efg|fd^c def|
~g3 afd|cde dBG|GAB ced|BGG G2D:|
|:GBd ~g3|edc BcA|GBd efg|fd^c def|
~g3 afd|cde dBG|GAB ced|BGG G2D:|

